build/category/PregnantSolid.svg

<svg xmlns="http://www.w3.org/2000/svg" fill="none" viewBox="0 0 24 24" focusable="false"><path d="M0 0H24V24H0z"/><path fill="#74767B" d="M8.94527 10.4746C9.01701 9.85494 9.20358 9.25983 9.49024 8.7175 9.32838 10.2271 9.83211 11.7808 10.9613 12.9213L12.4656 14.4407C12.7182 14.6958 13.1298 14.6979 13.3849 14.4453 13.64 14.1927 13.642 13.7812 13.3894 13.5261L11.8851 12.0067C10.6186 10.7275 10.4373 8.69732 11.3744 7.17555 11.4433 7.06377 11.5675 7 11.6987 7L12.4372 7C12.8147 7 13.1734 7.16402 13.4204 7.44944L13.6948 7.76661C14.4018 8.58387 14.4446 9.78315 13.7975 10.6487L13.7589 10.7003C13.6517 10.8437 13.7022 11.0492 13.8637 11.1265 16.0527 12.1747 16.844 14.8934 15.5592 16.9526L14.9938 17.8588C14.939 17.9466 14.8428 18 14.7393 18L13.8669 18 13.8669 21.3501C13.8669 21.7091 13.5759 22.0001 13.2169 22.0001 12.858 22.0001 12.5669 21.7091 12.5669 21.3501L12.5669 18 11.2724 18 11.2724 21.35C11.2724 21.709 10.9814 22 10.6224 22 10.2634 22 9.97241 21.709 9.97241 21.35L9.97241 18 8.12233 18C7.93787 18 7.7971 17.8351 7.82605 17.6529L8.88708 10.9772 8.94527 10.4746ZM12.9521 5.52351C12.0259 6.70193 9.33468 6.73105 8.5496 4.33939 8.48962 4.15667 8.63365 3.97834 8.82409 3.95162 9.55923 3.84846 9.94691 3.43487 10.4171 2.93323 10.5719 2.7681 10.7357 2.59343 10.9237 2.41714 10.9437 2.3976 10.9642 2.37863 10.9852 2.36025 10.9916 2.35435 10.9981 2.34844 11.0047 2.34253 11.258 2.12817 11.5777 2 11.9276 2 12.823 2 13.5189 2.84364 13.4178 3.80655L13.3297 4.64508C13.2939 4.98593 13.1565 5.29024 12.9521 5.52351Z"/><path fill="#74767B" d="M12.9521 5.52351C12.0259 6.70193 9.33468 6.73105 8.5496 4.33939C8.48962 4.15667 8.63365 3.97834 8.82409 3.95162C9.55923 3.84846 9.94691 3.43487 10.4171 2.93323C10.5719 2.7681 10.7357 2.59343 10.9237 2.41714C10.9437 2.3976 10.9642 2.37863 10.9852 2.36025C10.9916 2.35435 10.9981 2.34844 11.0047 2.34253C11.258 2.12817 11.5777 2 11.9276 2C12.823 2 13.5189 2.84364 13.4178 3.80655L13.3297 4.64508C13.2939 4.98593 13.1565 5.29024 12.9521 5.52351Z"/></svg>

<svg xmlns="http://www.w3.org/2000/svg" fill="none" viewBox="0 0 24 24" focusable="false"><g fill="#74767B"><path d="M8.94 10.47c.07-.62.26-1.22.55-1.76-.17 1.51.34 3.07 1.47 4.21l1.5 1.52c.25.25.66.25.92 0a.64.64 0 0 0 0-.92L11.88 12c-1.27-1.28-1.45-3.31-.51-4.83.07-.11.19-.17.32-.17h.74c.38 0 .74.16.99.44l.27.32c.71.82.75 2.02.1 2.88l-.04.06c-.1.14-.05.34.11.42a4.07 4.07 0 0 1 1.69 5.83l-.56.9c-.06.09-.15.15-.26.15h-.87v3.35c0 .35-.29.65-.65.65s-.65-.3-.65-.65V18h-1.29v3.35c0 .35-.29.65-.65.65s-.65-.3-.65-.65V18H8.12c-.19 0-.33-.17-.3-.35l1.06-6.68zM12.95 5.52c-.93 1.18-3.62 1.21-4.41-1.19-.06-.18.09-.36.28-.38.73-.11 1.12-.52 1.59-1.02.16-.17.32-.34.51-.52.02-.02.04-.04.06-.05.01-.01.01-.02.02-.02.25-.22.57-.34.92-.34.9 0 1.59.84 1.49 1.8l-.09.84c-.03.34-.17.65-.37.88"/></g></svg>
